X:1
T: COkertme
O: Turkish
M:4/4
N: maqam=A-bayati
K: C _B
ee fed2a2|gf ed cd e2|cd de cB BA|1 ee ee ed e2 :|2 A2A c' bd'c'2|]
|:c'(c' c'b) (ba) a2|(c'b) ag fe d2|fg ab g2 (ba)|a2ag ^fga2:|
dd- d(f/e/) dd aa|(gf) ed cd e2|[1cd de (cB) A2|e2ee ed e2:|
[2cd de (cB) (BA)|A2 AA AA A2|]xxxxxxxxxxxx
